X: 37018
T: Siete D'Ochobre
R: jig
M: 6/8
K: Gmajor
B|:DGB BAB|dcB E2D|EFG GFG|ABA B2G|
DGB BAB|dcB E2D|EFG GFG|ABA G2B:|
|:EFG GFG|ABA B2G|EFG GFG|Adc B2G|
EFG GFG|ABA B2G|dcB ADF|AGF G2B:|
|:ded BAG|ABA FED|DEF G2B|ded BAG|
d3 BAG|ABA FED|DEF G3|ABA G2B:|

